MonoIcons/scalable/status/network-cellular-hspa-symbolic.svg

<?xml version="1.0" encoding="UTF-8"?>
<svg height="16px" viewBox="0 0 16 16" width="16px" xmlns="http://www.w3.org/2000/svg">
    <path d="m 3 0 c -1.660156 0 -3 1.339844 -3 3 v 10 c 0 1.660156 1.339844 3 3 3 h 10 c 1.660156 0 3 -1.339844 3 -3 v -10 c 0 -1.660156 -1.339844 -3 -3 -3 z m 1 3 h 2 v 4 h 4 v -4 h 2 v 10 h -2 v -4 h -4 v 4 h -2 z m 0 0" fill="#2e3436"/>
</svg>

<svg width="16" height="16" viewBox="0 0 16 16" fill="none" xmlns="http://www.w3.org/2000/svg">
<g clip-path="url(#clip0_231_991)">
<path d="M3 0C1.33984 0 0 1.33984 0 3V13C0 14.6602 1.33984 16 3 16H13C14.6602 16 16 14.6602 16 13V3C16 1.33984 14.6602 0 13 0H3ZM4 3H6V7H10V3H12V13H10V9H6V13H4V3Z" fill="#2E3436"/>
</g>
<defs>
<clipPath id="clip0_231_991">
<rect width="16" height="16" fill="white"/>
</clipPath>
</defs>
</svg>
